!!!OTL: Mahnung
!!!ARE: Europa, Mitteleuropa, Deutschland
!!!SCT: A0652
!!!YEM: Copyright 1995, estate of Helmut Schaffrath.
**kern
*ICvox
*Ivox
*M4/2
*k[b-]
*d:
{2d
2d
2d
=1
2a
2a
2ccn
2ccn
=2
4a
4g
2fn
2r}
{2g
=3
2a
4ccn
4a
4ccn
4b-
4a
4g
=4
1fn
2fn}
{2fn
=5
4g
4a
4b-
4a
4g
4fn
2d
=6
2d
2a
2g}
{2d
=7
2fn
2cn
4a
4g
4fn
4e
=8
1d
1d
=9
2r}
==
!!!AGN: Romanze, Ballade, Lied, religioeses Lied
!! Strassburger Hs.
!!!ONB: ESAC (Essen Associative Code) Database: ALTDEU
!!!AMT: simple quadruple
!!!AIN: vox
!!!EED: Helmut Schaffrath
!!!EEV: 1.0
*-
